X:420
T: Doherty's King of the Pipers
T: R\'i na bP\'iobair\'i
S: B.Breathnach: "Ceol Rince na hEireann" II/45
Z: B.Black
L: 1/8
M: 6/8
R: jig
K: Dmix
d|: cAG A2D|DED A2d|cAG A2D|DED GED|
cAA A2D|DFD AGE|FDF ECE|DED GED :|
d2e fdg|ecA AFA|d^cd efg|faf gfe|
d2e fdg|ecA AGE|FDF ECE|DED GED|
d2e fdg|ecA AFA|d^cd efg|aba gec|
d2e fga|ecA AGE|FDF ECE|DED GED||
B2G A2G|BGE Edc|B2G A2E|GED Ddc|
B2G A2G|BGE E2^c|d^cd A2G|1 FDD Ddc :|2\
FDD D3||
